style-guide/assets/xd-icons-trash-tiny.svg

<?xml version="1.0" encoding="UTF-8"?>
<svg width="12px" height="12px" viewBox="0 0 12 12" version="1.1" xmlns="http://www.w3.org/2000/svg" xmlns:xlink="http://www.w3.org/1999/xlink">
    <!-- Generator: Sketch 51.3 (57544) - http://www.bohemiancoding.com/sketch -->
    <title>trash</title>
    <desc>Created with Sketch.</desc>
    <defs></defs>
    <g id="trash" stroke="none" stroke-width="1" fill="none" fill-rule="evenodd">
        <path d="M10,4 C10.552,4 11,4.448 11,5 L11,11 C11,11.552 10.552,12 10,12 L2,12 C1.448,12 1,11.552 1,11 L1,5 C1,4.448 1.448,4 2,4 C2.552,4 3,4.448 3,5 L3,10 L5,10 L5,5 C5,4.448 5.448,4 6,4 C6.552,4 7,4.448 7,5 L7,10 L9,10 L9,5 C9,4.448 9.448,4 10,4 Z M11,1 C11.552,1 12,1.448 12,2 C12,2.552 11.552,3 11,3 L1,3 C0.448,3 0,2.552 0,2 C0,1.448 0.448,1 1,1 L4,1 C4,0.448 4.448,0 5,0 L7,0 C7.552,0 8,0.448 8,1 L11,1 Z" id="Fill-1" fill="#000000"></path>
    </g>
</svg>

<svg viewBox="0 0 12 12" xmlns="http://www.w3.org/2000/svg">
  <path d="M10 4a1 1 0 0 1 1 1v6a1 1 0 0 1-1 1H2a1 1 0 0 1-1-1V5a1 1 0 0 1 2 0v5h2V5a1 1 0 0 1 2 0v5h2V5a1 1 0 0 1 1-1zm1-3a1 1 0 0 1 0 2H1a1 1 0 0 1 0-2h3a1 1 0 0 1 1-1h2a1 1 0 0 1 1 1h3z" fill="#000" fill-rule="evenodd"/>
</svg>
